static/media/longbar.24ee0c3d.svg

<?xml version="1.0" encoding="UTF-8"?>
<svg width="163px" height="210px" viewBox="0 0 163 210" version="1.1" xmlns="http://www.w3.org/2000/svg" xmlns:xlink="http://www.w3.org/1999/xlink">
    <!-- Generator: Sketch 52.6 (67491) - http://www.bohemiancoding.com/sketch -->
    <defs>
        <linearGradient x1="30.5959317%" y1="9.25920375%" x2="100%" y2="100%" id="linearGradient-1">
            <stop stop-color="#EDB3FF" offset="0%"></stop>
            <stop stop-color="#81B7FF" offset="100%"></stop>
        </linearGradient>
    </defs>
    <g id="Group-3" stroke="none" stroke-width="1" fill="none" fill-rule="evenodd">
        <path d="M8.56643357,47.7682403 L22.7797203,47.7682403 C27.5108309,47.7682403 31.3461538,51.6035633 31.3461538,56.3346739 L31.3461538,210 L0,210 L1.77635684e-15,56.3346739 C1.19696289e-15,51.6035633 3.83532295,47.7682403 8.56643357,47.7682403 Z" id="Path" fill="url(#linearGradient-1)"></path>
        <path d="M52.451049,83.1158798 L66.6643357,83.1158798 C71.3954463,83.1158798 75.2307692,86.9512028 75.2307692,91.6823134 L75.2307692,210.197425 L43.8846154,210.197425 L43.8846154,91.6823134 C43.8846154,86.9512028 47.7199383,83.1158798 52.451049,83.1158798 Z" id="Path1" fill="url(#linearGradient-1)"></path>
        <path d="M96.3356643,29.7424893 L110.548951,29.7424893 C115.280062,29.7424893 119.115385,33.5778122 119.115385,38.3089228 L119.115385,210 L87.7692308,210 L87.7692308,38.3089228 C87.7692308,33.5778122 91.6045537,29.7424893 96.3356643,29.7424893 Z" id="Path2" fill="url(#linearGradient-1)"></path>
        <path d="M140.22028,3 L154.433566,3 C159.164677,3 163,6.83532295 163,11.5664336 L163,210.296137 L131.653846,210.296137 L131.653846,11.5664336 C131.653846,6.83532295 135.489169,3 140.22028,3 Z" id="Path3" fill="url(#linearGradient-1)"></path>
    </g>
</svg>

<svg width="163" height="210" xmlns="http://www.w3.org/2000/svg"><defs><linearGradient x1="30.596%" y1="9.259%" x2="100%" y2="100%" id="a"><stop stop-color="#EDB3FF" offset="0%"/><stop stop-color="#81B7FF" offset="100%"/></linearGradient></defs><path d="M8.566 47.768H22.78a8.566 8.566 0 0 1 8.566 8.567V210H0V56.335a8.566 8.566 0 0 1 8.566-8.567zm43.885 35.348h14.213a8.566 8.566 0 0 1 8.567 8.566v118.515H43.885V91.682a8.566 8.566 0 0 1 8.566-8.566zm43.885-53.374h14.213a8.566 8.566 0 0 1 8.566 8.567V210H87.77V38.309a8.566 8.566 0 0 1 8.567-8.567zM140.22 3h14.214A8.566 8.566 0 0 1 163 11.566v198.73h-31.346V11.566A8.566 8.566 0 0 1 140.22 3z" fill="url(#a)" fill-rule="evenodd"/></svg>
